X:1
T:Maria durch ein Dornwald ging
T:Maria durch ein Dornwald ging
%%score [ 1 2 3 4 ]
L:1/8
Q:1/4=72
M:4/4
K:Bb
V:1 treble nm="Soprano" snm="S"
V:2 treble nm="Alto" snm="A"
V:3 treble-8 nm="Tenor" snm="T"
V:4 bass nm="Bass" snm="B"
V:1
 z4 z2 (d2- | decB cd) (BA) | G4 z4 | z4 z2 (f2- | fged ef) (dc) | B2 (d2- decB) | (cd) (BA) G3 A | %7
w: Ky-|* * * * * * ri- *|e,|Ky-|* * * * * * ri- *|e e- * * * *|lei- * son, _ Je- sus|
w: |||||||
w: |||||||
 B2 d2 (BA) G2- | G8- | G6 D2 | (G2 G) A B2 d2 | (BB)(AG) (A2 A2) | B2 BB c4 | d4 z2 (Bc) | %14
w: und Ma- ri- * a.|_|* Ma-|ri- * a durch ein|Dorn- * wald _ ging _|Ky- ri- e- lei-|son Ma- *|
w: ||* Was|trug _ Ma- ri- a|un- ter ih- rem Her- zen?|Ky- ri- e- lei-|son Ein _|
w: ||* Da|ha- ben die Dor- nen|Ro- * sen ge- tra- gen|Ky- ri- e- lei-|son Als das|
 d3 c d2 (ed) | c3 B c2 (dc) | (B2 B) A BBcB | (A2 A) G A2 A2 | G3 A B2 d2 | (BA) G2 z4 |] %20
w: ri- a durch ein _|Dorn- wald ging der _|hat _ in sie- ben Jahr'n kein|Laub _ ge- tra- gen.|Je- sus und Ma-|ri- * a.|
w: klei- nes Kind- lein _|oh- ne Schmer- zen, das|trug _ Ma- ri- a un- ter|ih- * rem Her- zen.|Je- sus und Ma-|ri- * a.|
w: Kind- lein durch den _|Wald ge- tra- gen, da|ha- ben die Dor- * nen _|Ro- sen ge- tra- gen.|Je- sus und Ma-|ri- * a.|
V:2
 z8 | z8 | z2 (B2- BcAG | AB) (G^F) G4 | z2 (c2- cdBA | Bc) (AG) A2 (A2- | ABG^F) (GA) (=FE) | %7
w: ||Ky- * * * *|* * ri- * e,|Ky- * * * *|* * ri- * e e-|* * * * lei- * son, _|
w: |||||||
w: |||||||
 D3 E F2 E2 | C8 | =B,6 D2 | (G2 G) ^F G2 B2 | (GG)(^F=E) (F2 F2) | G2 GG G4 | ^F4 z2 (=FA) | %14
w: Je- sus und Ma-|ri-|a. Ma-|ri- * a durch ein|Dorn- * wald _ ging _|Ky- ri- e- lei-|son Ma- *|
w: ||* Was|trug _ Ma- ri- a|un- ter ih- rem Her- zen?|Ky- ri- e- lei-|son Ein _|
w: ||* Da|ha- ben die Dor- nen|Ro- * sen ge- tra- gen|Ky- ri- e- lei-|son Als das|
 B3 A B2 (cB) | A3 G A2 (AA) | (G2 G) ^F GGAG | (^F2 F) G D2 D2 | G3 ^F G2 B2 | (G^F) G2 z4 |] %20
w: ri- a durch ein _|Dorn- wald ging der _|hat _ in sie- ben Jahr'n kein|Laub _ ge- tra- gen.|Je- sus und Ma-|ri- * a.|
w: klei- nes Kind- lein _|oh- ne Schmer- zen, das|trug _ Ma- ri- a un- ter|ih- * rem Her- zen.|Je- sus und Ma-|ri- * a.|
w: Kind- lein durch den _|Wald ge- tra- gen, da|ha- ben die Dor- * nen _|Ro- sen ge- tra- gen.|Je- sus und Ma-|ri- * a.|
V:3
 G3 G G4- | G8- | G8- | G8- | G8- | G8- | G8- | G8- | G2 _A2 (G2 F2) | G6 d2 | (B2 B) c d2 g2 | %11
w: Ky- ri- e|_|||||||* e- lei- *|son. Ma-|ri- * a durch ein|
w: |||||||||* Was|trug _ Ma- ri- a|
w: |||||||||* Da|ha- ben die Dor- nen|
 (dd)(dd) (d2 c2) | B2 dd g4 | d4 z2 (df) | f3 f f2 (ff) | f3 g f2 (dd) | (d2 d) c dded | %17
w: Dorn- * wald _ ging _|Ky- ri- e- lei-|son Ma- *|ri- a durch ein _|Dorn- wald ging der _|hat _ in sie- ben Jahr'n kein|
w: un- ter ih- rem Her- zen?|Ky- ri- e- lei-|son Ein _|klei- nes Kind- lein _|oh- ne Schmer- zen, das|trug _ Ma- ri- a un- ter|
w: Ro- * sen ge- tra- gen|Ky- ri- e- lei-|son Als das|Kind- lein durch den _|Wald ge- tra- gen, da|ha- ben die Dor- * nen _|
 (^f2 f) =e d2 c2 | B3 c g2 e2 | d2 g2 z4 |] %20
w: Laub _ ge- tra- gen.|Je- sus und Ma-|ri- a.|
w: ih- * rem Her- zen.|Je- sus und Ma-|ri- a.|
w: Ro- sen ge- tra- gen.|Je- sus und Ma-|ri- a.|
V:4
 G,,3 G,, G,,4- | G,,8- | G,,8- | G,,8- | G,,8- | G,,8- | G,,8- | G,,8- | G,,2 F,2 (E,2 C,2) | %9
w: Ky- ri- e|_|||||||* e- lei- *|
w: |||||||||
w: |||||||||
 D,6 D,2 | (G,,2 G,,) G,, G,,2 G,,2 | (D,D,)(D,D,) (D,2 D,2) | G,2 F,F, E,4 | D,4 z2 (B,,B,,) | %14
w: son. Ma-|ri- * a durch ein|Dorn- * wald _ ging _|Ky- ri- e- lei-|son Ma- *|
w: * Was|trug _ Ma- ri- a|un- ter ih- rem Her- zen?|Ky- ri- e- lei-|son Ein _|
w: * Da|ha- ben die Dor- nen|Ro- * sen ge- tra- gen|Ky- ri- e- lei-|son Als das|
 B,,3 B,, B,,2 (B,,B,,) | F,2 F,2 F,2 (^F,F,) | (G,2 G,) G, E,E,C,C, | (D,2 =E,) E, ^F,2 D,2 | %18
w: ri- a durch ein _|Dorn- wald ging der _|hat _ in sie- ben Jahr'n kein|Laub _ ge- tra- gen.|
w: klei- nes Kind- lein _|oh- ne Schmer- zen, das|trug _ Ma- ri- a un- ter|ih- * rem Her- zen.|
w: Kind- lein durch den _|Wald ge- tra- gen, da|ha- ben die Dor- * nen _|Ro- sen ge- tra- gen.|
 G,,3 D, G,2 C,2 | D,2 G,,2 z4 |] %20
w: Je- sus und Ma-|ri- a.|
w: Je- sus und Ma-|ri- a.|
w: Je- sus und Ma-|ri- a.|

